assets/js/back-end/assets/icons/open-ended-essay.svg

<svg fill="none" height="28" viewBox="0 0 28 28" width="28" xmlns="http://www.w3.org/2000/svg" xmlns:xlink="http://www.w3.org/1999/xlink"><clipPath id="a"><path d="m8.16669 7h15.1667v14h-15.1667z"/></clipPath><rect fill="#af6ded" height="28" rx="3" width="28"/><g clip-path="url(#a)"><path d="m23.137 11.5754-.8392-.8714c-.2617-.2718-.6864-.2718-.9482 0l-.7175.7451 1.7874 1.8561.7175-.7451c.262-.2718.262-.7129 0-.9847zm-6.3058 3.7918c-.2002.206-.3474.4609-.4281.7413l-.4011 1.3915h-.6519c-.1127 0-.2138-.0651-.2675-.1777-.3152-.6525-1.2186-.8296-1.7379-.3875l-.3655-1.138c-.0863-.2683-.3275-.4488-.5998-.4488s-.5135.1802-.5998.4488l-.4795 1.4943c-.0395.1252-.1522.2089-.2789.2089h-.3267c-.2328 0-.4213.1958-.4213.4375s.1885.4375.4213.4375h.3267c.4903 0 .924-.3248 1.0788-.8075l.2797-.872.4426 1.3804c.0264.0821.0757.1542.1416.2072s.1454.0845.2286.0905c.01.0009.0198.0014.0295.0014.1588 0 .3052-.0932.3768-.2423l.2017-.4191c.0732-.1529.2091-.1693.2641-.1693s.1909.0161.2683.1786c.1943.4019.5843.6518 1.0169.6518h1.6641v1.3128h-7.58358v-11.37254h4.21218v2.84324c0 .3636.2817.6559.632.6559h2.7394v2.1329l1.2639-1.3011v-2.0371c0-.3472-.1361-.68357-.3731-.92939l-2.2089-2.29386c-.237-.2461-.5582-.38555-.8924-.38555h-5.37308c-.69751.00273-1.26363.59062-1.26363 1.31496v11.37284c0 .7243.56612 1.3122 1.26363 1.3122h7.58178c.6978 0 1.2657-.5879 1.2657-1.3122v-2.0566l3.5458-3.7072-1.7874-1.8561zm-1.9251-6.9456 2.0036 2.0803h-2.0036z" fill="#fff"/></g></svg>

<?xml version="1.0" encoding="UTF-8" standalone="no"?>
<!DOCTYPE svg PUBLIC "-//W3C//DTD SVG 1.1//EN" "http://www.w3.org/Graphics/SVG/1.1/DTD/svg11.dtd">
<svg width="100%" height="100%" viewBox="0 0 28 28" version="1.1" xmlns="http://www.w3.org/2000/svg" xmlns:xlink="http://www.w3.org/1999/xlink" xml:space="preserve" xmlns:serif="http://www.serif.com/" style="fill-rule:evenodd;clip-rule:evenodd;stroke-linejoin:round;stroke-miterlimit:2;">
    <path d="M28,3C28,1.344 26.656,0 25,0L3,0C1.344,0 0,1.344 0,3L0,25C0,26.656 1.344,28 3,28L25,28C26.656,28 28,26.656 28,25L28,3ZM16.831,15.367C16.631,15.573 16.484,15.828 16.403,16.108L16.002,17.5L15.35,17.5C15.237,17.5 15.136,17.435 15.083,17.322C14.767,16.67 13.864,16.493 13.345,16.935L12.979,15.797C12.893,15.528 12.652,15.348 12.379,15.348C12.107,15.348 11.866,15.528 11.78,15.797L11.3,17.291C11.261,17.416 11.148,17.5 11.021,17.5L10.695,17.5C10.462,17.5 10.273,17.696 10.273,17.938C10.273,18.179 10.462,18.375 10.695,18.375L11.021,18.375C11.512,18.375 11.945,18.05 12.1,17.568L12.38,16.696L12.822,18.076C12.849,18.158 12.898,18.23 12.964,18.283C13.03,18.336 13.109,18.368 13.193,18.374C13.203,18.375 13.212,18.375 13.222,18.375C13.381,18.375 13.527,18.282 13.599,18.133L13.801,17.714C13.874,17.561 14.01,17.544 14.065,17.544C14.12,17.544 14.256,17.56 14.333,17.723C14.527,18.125 14.917,18.375 15.35,18.375L17.014,18.375L17.014,19.688L9.43,19.688L9.43,8.315L13.643,8.315L13.643,11.158C13.643,11.522 13.924,11.814 14.275,11.814L17.014,11.814L17.014,13.947L18.278,12.646L18.278,10.609C18.278,10.262 18.142,9.925 17.905,9.679L15.696,7.386C15.459,7.139 15.138,7 14.803,7L9.43,7C8.733,7.003 8.167,7.591 8.167,8.315L8.167,19.688C8.167,20.412 8.733,21 9.43,21L17.012,21C17.71,21 18.278,20.412 18.278,19.688L18.278,17.631L21.824,13.924L20.036,12.068L16.831,15.367ZM23.137,11.575L22.298,10.704C22.036,10.432 21.611,10.432 21.35,10.704L20.632,11.449L22.42,13.305L23.137,12.56C23.399,12.288 23.399,11.847 23.137,11.575ZM14.906,8.422L16.91,10.502L14.906,10.502L14.906,8.422Z" style="fill:rgb(175,109,237);"/>
</svg>
